icons/Chevron-Left.svg

<svg width="24" height="24" viewBox="0 0 24 24" fill="none" xmlns="http://www.w3.org/2000/svg">
<path fill-rule="evenodd" clip-rule="evenodd" d="M18.196 19.285L11.273 12.352L18.196 5.419C18.2447 5.37233 18.2835 5.31629 18.3099 5.25425C18.3364 5.19221 18.35 5.12545 18.35 5.058C18.35 4.99055 18.3364 4.92379 18.3099 4.86175C18.2835 4.79971 18.2447 4.74367 18.196 4.697L16.009 2.497C15.9126 2.40257 15.783 2.34969 15.648 2.34969C15.513 2.34969 15.3834 2.40257 15.287 2.497L7.987 9.797L5.8 11.984C5.70557 12.0804 5.65269 12.21 5.65269 12.345C5.65269 12.48 5.70557 12.6096 5.8 12.706L7.987 14.893L15.26 22.193C15.3564 22.2874 15.486 22.3403 15.621 22.3403C15.756 22.3403 15.8856 22.2874 15.982 22.193L18.2 19.993C18.2487 19.9463 18.2875 19.8903 18.3139 19.8282C18.3404 19.7662 18.354 19.6995 18.354 19.632C18.354 19.5645 18.3404 19.4978 18.3139 19.4358C18.2875 19.3737 18.2487 19.3177 18.2 19.271L18.196 19.285Z" fill="black"/>
</svg>

<svg xmlns="http://www.w3.org/2000/svg" viewBox="0 0 24 24">
  <path d="M18.196 19.285l-6.923-6.933 6.923-6.933a.499.499 0 000-.722l-2.187-2.2a.516.516 0 00-.722 0l-7.3 7.3L5.8 11.984a.516.516 0 000 .722l2.187 2.187 7.273 7.3a.516.516 0 00.722 0l2.218-2.2a.499.499 0 000-.722l-.004.014z"/>
</svg>
